X:8
T:A Maiden Sweet In May
C:Taken down from Jas. Parsons by S.B.G. 1887
%%VWML:SBG-1-1-75-0
F:http://www.vwml.org/record/SBG/1/1/75
Z:Original Sibleius Transcription by Martin and Shan Graebe
M:4/4
L:1/8
K:G
DEF | G2 G2 G2 G2 | A2 GF2z G2A | B2 B2 d2 cB | A2:|
zA|BA Bc dd AB|cd AG FE D/D/|G2AF GA Bd|(B2A) AG2|| 
T:Maiden sweet in may
T:Taken down from Jas. Parsons by H.Fl.S.
M:4/4
L:1/8
K:G
DEF | G2 GG G2 FG | A2 FG G2zA | B2 BB d2 cB | BA AA A2zA |
 B>A B>c dd AB |cd c>A GF ED | G2 AF GA Bd | B2 A2 G2 ||
T:Maiden sweet in may - parsons 3 - 1890
T:Taken down from Jas. Parsons by S.B.G. July 1890 to words of a diff. metre.
M:4/4
L:1/8
K:G
DEF | G2 GG G2 FA | A2 GFG2zA | B2 AB c2 d2  cB| A BA GA B2 A|
 BA Bc dd AB| cd AG GF  (D2| D3) zE/E/|G2 BG AB cd|B2 A2(G2|G3) ||
T:Maiden sweet in may
T:“She rown’t in her apron”​Scot’s Musical Museum, V. p. 437
M:4/4
L:1/8
K:F
F2 F2  c2 AG | F2 GA  c4 | f2 d2 d2 BA | G2 Ac  d3e |
w:Our young lady's*a hunt-ing *gone sheets nor blan-kets*has she*taen But
 f2 ff f2 ga | F>F FG  BA GF | G2 f2 d2 cA  |G4  F4 ||
w:she's barn *her auld*son or she came hame* And *she's row'd him in here ap-ron

